assets/images/logo-2.svg

<svg width="451" height="42" viewBox="0 0 451 42" fill="none" xmlns="http://www.w3.org/2000/svg">
<path d="M21.5 5H450.5L430.5 37H0L21.5 5Z" fill="#ED5A00"/>
<path d="M37.5 0H441.5L415.5 42H8.5L37.5 0Z" fill="#1E1E1E"/>
<path d="M57.76 10.42C57.88 10.42 57.99 10.46 58.09 10.54C58.21 10.62 58.29 10.71 58.33 10.81L62.5 21.25C62.54 21.35 62.57 21.48 62.59 21.64C62.63 21.8 62.65 21.94 62.65 22.06V30.58C62.65 30.86 62.51 31 62.23 31H60.82C60.54 31 60.4 30.86 60.4 30.58V25.03H49.51V30.58C49.51 30.86 49.37 31 49.09 31H47.65C47.37 31 47.23 30.86 47.23 30.58V22.06C47.23 21.94 47.24 21.8 47.26 21.64C47.3 21.48 47.34 21.35 47.38 21.25L51.55 10.81C51.59 10.71 51.67 10.62 51.79 10.54C51.91 10.46 52.02 10.42 52.12 10.42H57.76ZM60.4 22.78V22.06L56.65 12.7H53.26L49.51 22.06V22.78H60.4Z" fill="#ED5A00"/>
<path d="M80.748 30.61L76.848 21.85H70.428V30.58C70.428 30.86 70.288 31 70.008 31H68.598C68.318 31 68.178 30.86 68.178 30.58V10.84C68.178 10.56 68.318 10.42 68.598 10.42H79.218C79.818 10.42 80.378 10.54 80.898 10.78C81.438 11 81.908 11.31 82.308 11.71C82.708 12.11 83.018 12.58 83.238 13.12C83.478 13.64 83.598 14.2 83.598 14.8V17.47C83.598 18.45 83.298 19.33 82.698 20.11C82.118 20.87 81.358 21.39 80.418 21.67L79.398 21.97L83.238 30.61C83.298 30.71 83.298 30.8 83.238 30.88C83.198 30.96 83.118 31 82.998 31H81.348C81.228 31 81.108 30.96 80.988 30.88C80.868 30.8 80.788 30.71 80.748 30.61ZM70.428 19.57H79.218C79.798 19.57 80.288 19.37 80.688 18.97C81.108 18.55 81.318 18.05 81.318 17.47V14.8C81.318 14.22 81.108 13.73 80.688 13.33C80.288 12.91 79.798 12.7 79.218 12.7H70.428V19.57Z" fill="white"/>
<path d="M95.6659 30.58V12.7H89.5159C89.2359 12.7 89.0959 12.56 89.0959 12.28V10.84C89.0959 10.56 89.2359 10.42 89.5159 10.42H104.096C104.376 10.42 104.516 10.56 104.516 10.84V12.28C104.516 12.56 104.376 12.7 104.096 12.7H97.9459V30.58C97.9459 30.7 97.8959 30.8 97.7959 30.88C97.7159 30.96 97.6259 31 97.5259 31H96.0859C95.8059 31 95.6659 30.86 95.6659 30.58Z" fill="white"/>
<path d="M130.873 26.62V25.24C130.873 25.14 130.913 25.05 130.993 24.97C131.093 24.87 131.193 24.82 131.293 24.82H132.733C132.853 24.82 132.953 24.87 133.033 24.97C133.113 25.05 133.153 25.14 133.153 25.24V26.62C133.153 27.2 133.353 27.7 133.753 28.12C134.173 28.52 134.673 28.72 135.253 28.72H141.943C142.523 28.72 143.013 28.52 143.413 28.12C143.833 27.7 144.043 27.2 144.043 26.62V23.95C144.043 23.37 143.833 22.88 143.413 22.48C143.013 22.06 142.523 21.85 141.943 21.85H135.253C134.653 21.85 134.083 21.74 133.543 21.52C133.023 21.28 132.563 20.97 132.163 20.59C131.763 20.19 131.443 19.72 131.203 19.18C130.983 18.64 130.873 18.07 130.873 17.47V14.8C130.873 14.2 130.983 13.64 131.203 13.12C131.443 12.58 131.763 12.11 132.163 11.71C132.563 11.31 133.023 11 133.543 10.78C134.083 10.54 134.653 10.42 135.253 10.42H141.943C142.543 10.42 143.103 10.54 143.623 10.78C144.163 11 144.633 11.31 145.033 11.71C145.433 12.11 145.743 12.58 145.963 13.12C146.203 13.64 146.323 14.2 146.323 14.8V16.18C146.323 16.46 146.183 16.6 145.903 16.6H144.463C144.183 16.6 144.043 16.46 144.043 16.18V14.8C144.043 14.22 143.833 13.73 143.413 13.33C143.013 12.91 142.523 12.7 141.943 12.7H135.253C134.673 12.7 134.173 12.91 133.753 13.33C133.353 13.73 133.153 14.22 133.153 14.8V17.47C133.153 18.05 133.353 18.55 133.753 18.97C134.173 19.37 134.673 19.57 135.253 19.57H141.943C142.543 19.57 143.103 19.69 143.623 19.93C144.163 20.15 144.633 20.46 145.033 20.86C145.433 21.26 145.743 21.73 145.963 22.27C146.203 22.79 146.323 23.35 146.323 23.95V26.62C146.323 27.22 146.203 27.79 145.963 28.33C145.743 28.87 145.433 29.34 145.033 29.74C144.633 30.12 144.163 30.43 143.623 30.67C143.103 30.89 142.543 31 141.943 31H135.253C134.653 31 134.083 30.89 133.543 30.67C133.023 30.43 132.563 30.12 132.163 29.74C131.763 29.34 131.443 28.87 131.203 28.33C130.983 27.79 130.873 27.22 130.873 26.62Z" fill="#ED5A00"/>
<path d="M158.391 30.58V12.7H152.241C151.961 12.7 151.821 12.56 151.821 12.28V10.84C151.821 10.56 151.961 10.42 152.241 10.42H166.821C167.101 10.42 167.241 10.56 167.241 10.84V12.28C167.241 12.56 167.101 12.7 166.821 12.7H160.671V30.58C160.671 30.7 160.621 30.8 160.521 30.88C160.441 30.96 160.351 31 160.251 31H158.811C158.531 31 158.391 30.86 158.391 30.58Z" fill="white"/>
<path d="M173.129 30.58V29.14C173.129 29.04 173.169 28.95 173.249 28.87C173.329 28.77 173.429 28.72 173.549 28.72H179.309V12.7H173.549C173.269 12.7 173.129 12.56 173.129 12.28V10.84C173.129 10.56 173.269 10.42 173.549 10.42H187.319C187.599 10.42 187.739 10.56 187.739 10.84V12.28C187.739 12.56 187.599 12.7 187.319 12.7H181.589V28.72H187.319C187.439 28.72 187.539 28.77 187.619 28.87C187.699 28.95 187.739 29.04 187.739 29.14V30.58C187.739 30.86 187.599 31 187.319 31H173.549C173.269 31 173.129 30.86 173.129 30.58Z" fill="white"/>
<path d="M194.856 10.42H196.296C196.576 10.42 196.716 10.56 196.716 10.84V28.72H208.446C208.566 28.72 208.666 28.77 208.746 28.87C208.826 28.95 208.866 29.04 208.866 29.14V30.58C208.866 30.86 208.726 31 208.446 31H194.856C194.756 31 194.656 30.96 194.556 30.88C194.476 30.8 194.436 30.7 194.436 30.58V10.84C194.436 10.72 194.476 10.62 194.556 10.54C194.656 10.46 194.756 10.42 194.856 10.42Z" fill="white"/>
<path d="M215.774 10.42H217.214C217.494 10.42 217.634 10.56 217.634 10.84V28.72H229.364C229.484 28.72 229.584 28.77 229.664 28.87C229.744 28.95 229.784 29.04 229.784 29.14V30.58C229.784 30.86 229.644 31 229.364 31H215.774C215.674 31 215.574 30.96 215.474 30.88C215.394 30.8 215.354 30.7 215.354 30.58V10.84C215.354 10.72 215.394 10.62 215.474 10.54C215.574 10.46 215.674 10.42 215.774 10.42Z" fill="white"/>
<path d="M271.801 16.18C271.801 16.46 271.661 16.6 271.381 16.6H269.941C269.661 16.6 269.521 16.46 269.521 16.18V14.77C269.501 14.19 269.291 13.7 268.891 13.3C268.491 12.9 268.001 12.7 267.421 12.7H260.731C260.151 12.7 259.651 12.91 259.231 13.33C258.831 13.73 258.631 14.22 258.631 14.8V26.62C258.631 27.2 258.831 27.7 259.231 28.12C259.651 28.52 260.151 28.72 260.731 28.72H267.421C268.001 28.72 268.491 28.53 268.891 28.15C269.291 27.75 269.501 27.26 269.521 26.68V25.24C269.521 25.14 269.561 25.05 269.641 24.97C269.721 24.87 269.821 24.82 269.941 24.82H271.381C271.501 24.82 271.601 24.87 271.681 24.97C271.761 25.05 271.801 25.14 271.801 25.24V26.68C271.801 27.28 271.681 27.84 271.441 28.36C271.201 28.88 270.881 29.34 270.481 29.74C270.101 30.12 269.641 30.43 269.101 30.67C268.581 30.89 268.021 31 267.421 31H260.731C260.131 31 259.561 30.89 259.021 30.67C258.501 30.43 258.041 30.12 257.641 29.74C257.261 29.34 256.951 28.87 256.711 28.33C256.491 27.79 256.381 27.22 256.381 26.62V14.8C256.381 14.2 256.491 13.64 256.711 13.12C256.951 12.58 257.261 12.11 257.641 11.71C258.041 11.31 258.501 11 259.021 10.78C259.561 10.54 260.131 10.42 260.731 10.42H267.421C268.021 10.42 268.581 10.54 269.101 10.78C269.641 11 270.101 11.31 270.481 11.71C270.881 12.09 271.201 12.55 271.441 13.09C271.681 13.61 271.801 14.17 271.801 14.77V16.18Z" fill="#ED5A00"/>
<path d="M281.649 31C281.049 31 280.479 30.89 279.939 30.67C279.419 30.43 278.959 30.12 278.559 29.74C278.179 29.34 277.869 28.87 277.629 28.33C277.409 27.79 277.299 27.22 277.299 26.62V14.8C277.299 14.2 277.409 13.64 277.629 13.12C277.869 12.58 278.179 12.11 278.559 11.71C278.959 11.31 279.419 11 279.939 10.78C280.479 10.54 281.049 10.42 281.649 10.42H288.339C288.939 10.42 289.499 10.54 290.019 10.78C290.559 11 291.029 11.31 291.429 11.71C291.829 12.11 292.139 12.58 292.359 13.12C292.599 13.64 292.719 14.2 292.719 14.8V26.62C292.719 27.22 292.599 27.79 292.359 28.33C292.139 28.87 291.829 29.34 291.429 29.74C291.029 30.12 290.559 30.43 290.019 30.67C289.499 30.89 288.939 31 288.339 31H281.649ZM281.649 12.7C281.069 12.7 280.569 12.91 280.149 13.33C279.749 13.73 279.549 14.22 279.549 14.8V26.62C279.549 27.2 279.749 27.7 280.149 28.12C280.569 28.52 281.069 28.72 281.649 28.72H288.339C288.919 28.72 289.409 28.52 289.809 28.12C290.229 27.7 290.439 27.2 290.439 26.62V14.8C290.439 14.22 290.229 13.73 289.809 13.33C289.409 12.91 288.919 12.7 288.339 12.7H281.649Z" fill="white"/>
<path d="M310.727 10.78C310.787 10.68 310.877 10.6 310.997 10.54C311.137 10.46 311.267 10.42 311.387 10.42H313.217C313.497 10.42 313.637 10.56 313.637 10.84V30.58C313.637 30.86 313.497 31 313.217 31H311.777C311.497 31 311.357 30.86 311.357 30.58V13.27L307.007 20.35C306.947 20.45 306.847 20.54 306.707 20.62C306.587 20.68 306.477 20.71 306.377 20.71H305.477C305.357 20.71 305.227 20.68 305.087 20.62C304.967 20.54 304.877 20.45 304.817 20.35L300.467 13.27V30.58C300.467 30.86 300.327 31 300.047 31H298.637C298.357 31 298.217 30.86 298.217 30.58V10.84C298.217 10.56 298.357 10.42 298.637 10.42H300.467C300.567 10.42 300.677 10.46 300.797 10.54C300.937 10.6 301.037 10.68 301.097 10.78L305.927 17.98L310.727 10.78Z" fill="white"/>
<path d="M319.105 30.58V10.84C319.105 10.72 319.145 10.62 319.225 10.54C319.325 10.46 319.425 10.42 319.525 10.42H330.175C330.775 10.42 331.335 10.54 331.855 10.78C332.395 11 332.865 11.31 333.265 11.71C333.665 12.11 333.975 12.58 334.195 13.12C334.435 13.64 334.555 14.2 334.555 14.8V17.47C334.555 18.07 334.435 18.64 334.195 19.18C333.975 19.72 333.665 20.19 333.265 20.59C332.865 20.97 332.395 21.28 331.855 21.52C331.335 21.74 330.775 21.85 330.175 21.85H321.385V30.58C321.385 30.86 321.245 31 320.965 31H319.525C319.425 31 319.325 30.96 319.225 30.88C319.145 30.8 319.105 30.7 319.105 30.58ZM321.385 19.57H330.175C330.755 19.57 331.245 19.37 331.645 18.97C332.065 18.55 332.275 18.05 332.275 17.47V14.8C332.275 14.22 332.065 13.73 331.645 13.33C331.245 12.91 330.755 12.7 330.175 12.7H321.385V19.57Z" fill="white"/>
<path d="M350.553 10.42C350.673 10.42 350.783 10.46 350.883 10.54C351.003 10.62 351.083 10.71 351.123 10.81L355.293 21.25C355.333 21.35 355.363 21.48 355.383 21.64C355.423 21.8 355.443 21.94 355.443 22.06V30.58C355.443 30.86 355.303 31 355.023 31H353.613C353.333 31 353.193 30.86 353.193 30.58V25.03H342.303V30.58C342.303 30.86 342.163 31 341.883 31H340.443C340.163 31 340.023 30.86 340.023 30.58V22.06C340.023 21.94 340.033 21.8 340.053 21.64C340.093 21.48 340.133 21.35 340.173 21.25L344.343 10.81C344.383 10.71 344.463 10.62 344.583 10.54C344.703 10.46 344.813 10.42 344.913 10.42H350.553ZM353.193 22.78V22.06L349.443 12.7H346.053L342.303 22.06V22.78H353.193Z" fill="white"/>
<path d="M374.111 30.58V21.97L363.221 12.97V30.58C363.221 30.86 363.081 31 362.801 31H361.361C361.261 31 361.161 30.96 361.061 30.88C360.981 30.8 360.941 30.7 360.941 30.58V10.84C360.941 10.72 360.981 10.62 361.061 10.54C361.161 10.46 361.261 10.42 361.361 10.42H363.371C363.651 10.42 363.901 10.51 364.121 10.69L374.111 18.94V10.84C374.111 10.56 374.251 10.42 374.531 10.42H375.971C376.251 10.42 376.391 10.56 376.391 10.84V30.58C376.391 30.86 376.251 31 375.971 31H374.531C374.251 31 374.111 30.86 374.111 30.58Z" fill="white"/>
<path d="M382.159 16.3C382.079 16.2 382.009 16.09 381.949 15.97C381.889 15.83 381.859 15.7 381.859 15.58V10.84C381.859 10.74 381.899 10.65 381.979 10.57C382.079 10.47 382.179 10.42 382.279 10.42H383.719C383.839 10.42 383.939 10.47 384.019 10.57C384.099 10.65 384.139 10.74 384.139 10.84V14.68C384.139 14.78 384.169 14.9 384.229 15.04C384.289 15.18 384.359 15.3 384.439 15.4L389.599 20.44L394.729 15.4C394.829 15.3 394.899 15.18 394.939 15.04C394.999 14.9 395.029 14.78 395.029 14.68V10.84C395.029 10.74 395.069 10.65 395.149 10.57C395.229 10.47 395.329 10.42 395.449 10.42H396.889C397.009 10.42 397.109 10.47 397.189 10.57C397.269 10.65 397.309 10.74 397.309 10.84V15.58C397.309 15.7 397.279 15.83 397.219 15.97C397.159 16.09 397.089 16.2 397.009 16.3L390.739 22.54V30.58C390.739 30.7 390.689 30.8 390.589 30.88C390.509 30.96 390.419 31 390.319 31H388.879C388.599 31 388.459 30.86 388.459 30.58V22.54L382.159 16.3Z" fill="white"/>
</svg>

<svg width="451" height="42" fill="none" xmlns="http://www.w3.org/2000/svg"><path d="M21.5 5h429l-20 32H0L21.5 5Z" fill="#ED5A00"/><path d="M37.5 0h404l-26 42H8.5l29-42Z" fill="#1E1E1E"/><path d="M57.76 10.42c.12 0 .23.04.33.12.12.08.2.17.24.27l4.17 10.44c.04.1.07.23.09.39.04.16.06.3.06.42v8.52c0 .28-.14.42-.42.42h-1.41c-.28 0-.42-.14-.42-.42v-5.55H49.51v5.55c0 .28-.14.42-.42.42h-1.44c-.28 0-.42-.14-.42-.42v-8.52c0-.12.01-.26.03-.42.04-.16.08-.29.12-.39l4.17-10.44c.04-.1.12-.19.24-.27.12-.08.23-.12.33-.12h5.64Zm2.64 12.36v-.72l-3.75-9.36h-3.39l-3.75 9.36v.72H60.4Z" fill="#ED5A00"/><path d="m80.748 30.61-3.9-8.76h-6.42v8.73c0 .28-.14.42-.42.42h-1.41c-.28 0-.42-.14-.42-.42V10.84c0-.28.14-.42.42-.42h10.62c.6 0 1.16.12 1.68.36.54.22 1.01.53 1.41.93.4.4.71.87.93 1.41.24.52.36 1.08.36 1.68v2.67c0 .98-.3 1.86-.9 2.64-.58.76-1.34 1.28-2.28 1.56l-1.02.3 3.84 8.64c.06.1.06.19 0 .27-.04.08-.12.12-.24.12h-1.65c-.12 0-.24-.04-.36-.12a.605.605 0 0 1-.24-.27Zm-10.32-11.04h8.79c.58 0 1.07-.2 1.47-.6.42-.42.63-.92.63-1.5V14.8c0-.58-.21-1.07-.63-1.47-.4-.42-.89-.63-1.47-.63h-8.79v6.87ZM95.666 30.58V12.7h-6.15c-.28 0-.42-.14-.42-.42v-1.44c0-.28.14-.42.42-.42h14.58c.28 0 .42.14.42.42v1.44c0 .28-.14.42-.42.42h-6.15v17.88c0 .12-.05.22-.15.3-.08.08-.17.12-.27.12h-1.44c-.28 0-.42-.14-.42-.42Z" fill="#fff"/><path d="M130.873 26.62v-1.38c0-.1.04-.19.12-.27.1-.1.2-.15.3-.15h1.44c.12 0 .22.05.3.15.08.08.12.17.12.27v1.38c0 .58.2 1.08.6 1.5.42.4.92.6 1.5.6h6.69c.58 0 1.07-.2 1.47-.6.42-.42.63-.92.63-1.5v-2.67c0-.58-.21-1.07-.63-1.47-.4-.42-.89-.63-1.47-.63h-6.69c-.6 0-1.17-.11-1.71-.33-.52-.24-.98-.55-1.38-.93-.4-.4-.72-.87-.96-1.41-.22-.54-.33-1.11-.33-1.71V14.8c0-.6.11-1.16.33-1.68.24-.54.56-1.01.96-1.41.4-.4.86-.71 1.38-.93.54-.24 1.11-.36 1.71-.36h6.69c.6 0 1.16.12 1.68.36.54.22 1.01.53 1.41.93.4.4.71.87.93 1.41.24.52.36 1.08.36 1.68v1.38c0 .28-.14.42-.42.42h-1.44c-.28 0-.42-.14-.42-.42V14.8c0-.58-.21-1.07-.63-1.47-.4-.42-.89-.63-1.47-.63h-6.69c-.58 0-1.08.21-1.5.63-.4.4-.6.89-.6 1.47v2.67c0 .58.2 1.08.6 1.5.42.4.92.6 1.5.6h6.69c.6 0 1.16.12 1.68.36.54.22 1.01.53 1.41.93.4.4.71.87.93 1.41.24.52.36 1.08.36 1.68v2.67c0 .6-.12 1.17-.36 1.71-.22.54-.53 1.01-.93 1.41-.4.38-.87.69-1.41.93-.52.22-1.08.33-1.68.33h-6.69c-.6 0-1.17-.11-1.71-.33-.52-.24-.98-.55-1.38-.93-.4-.4-.72-.87-.96-1.41-.22-.54-.33-1.11-.33-1.71Z" fill="#ED5A00"/><path d="M158.391 30.58V12.7h-6.15c-.28 0-.42-.14-.42-.42v-1.44c0-.28.14-.42.42-.42h14.58c.28 0 .42.14.42.42v1.44c0 .28-.14.42-.42.42h-6.15v17.88c0 .12-.05.22-.15.3-.08.08-.17.12-.27.12h-1.44c-.28 0-.42-.14-.42-.42ZM173.129 30.58v-1.44c0-.1.04-.19.12-.27.08-.1.18-.15.3-.15h5.76V12.7h-5.76c-.28 0-.42-.14-.42-.42v-1.44c0-.28.14-.42.42-.42h13.77c.28 0 .42.14.42.42v1.44c0 .28-.14.42-.42.42h-5.73v16.02h5.73c.12 0 .22.05.3.15.08.08.12.17.12.27v1.44c0 .28-.14.42-.42.42h-13.77c-.28 0-.42-.14-.42-.42ZM194.856 10.42h1.44c.28 0 .42.14.42.42v17.88h11.73c.12 0 .22.05.3.15.08.08.12.17.12.27v1.44c0 .28-.14.42-.42.42h-13.59c-.1 0-.2-.04-.3-.12a.407.407 0 0 1-.12-.3V10.84c0-.12.04-.22.12-.3.1-.08.2-.12.3-.12ZM215.774 10.42h1.44c.28 0 .42.14.42.42v17.88h11.73c.12 0 .22.05.3.15.08.08.12.17.12.27v1.44c0 .28-.14.42-.42.42h-13.59c-.1 0-.2-.04-.3-.12a.407.407 0 0 1-.12-.3V10.84c0-.12.04-.22.12-.3.1-.08.2-.12.3-.12Z" fill="#fff"/><path d="M271.801 16.18c0 .28-.14.42-.42.42h-1.44c-.28 0-.42-.14-.42-.42v-1.41c-.02-.58-.23-1.07-.63-1.47-.4-.4-.89-.6-1.47-.6h-6.69c-.58 0-1.08.21-1.5.63-.4.4-.6.89-.6 1.47v11.82c0 .58.2 1.08.6 1.5.42.4.92.6 1.5.6h6.69c.58 0 1.07-.19 1.47-.57.4-.4.61-.89.63-1.47v-1.44c0-.1.04-.19.12-.27.08-.1.18-.15.3-.15h1.44c.12 0 .22.05.3.15.08.08.12.17.12.27v1.44c0 .6-.12 1.16-.36 1.68s-.56.98-.96 1.38c-.38.38-.84.69-1.38.93-.52.22-1.08.33-1.68.33h-6.69c-.6 0-1.17-.11-1.71-.33-.52-.24-.98-.55-1.38-.93-.38-.4-.69-.87-.93-1.41-.22-.54-.33-1.11-.33-1.71V14.8c0-.6.11-1.16.33-1.68.24-.54.55-1.01.93-1.41.4-.4.86-.71 1.38-.93.54-.24 1.11-.36 1.71-.36h6.69c.6 0 1.16.12 1.68.36.54.22 1 .53 1.38.93.4.38.72.84.96 1.38.24.52.36 1.08.36 1.68v1.41Z" fill="#ED5A00"/><path d="M281.649 31c-.6 0-1.17-.11-1.71-.33-.52-.24-.98-.55-1.38-.93-.38-.4-.69-.87-.93-1.41-.22-.54-.33-1.11-.33-1.71V14.8c0-.6.11-1.16.33-1.68.24-.54.55-1.01.93-1.41.4-.4.86-.71 1.38-.93.54-.24 1.11-.36 1.71-.36h6.69c.6 0 1.16.12 1.68.36.54.22 1.01.53 1.41.93.4.4.71.87.93 1.41.24.52.36 1.08.36 1.68v11.82c0 .6-.12 1.17-.36 1.71-.22.54-.53 1.01-.93 1.41-.4.38-.87.69-1.41.93-.52.22-1.08.33-1.68.33h-6.69Zm0-18.3c-.58 0-1.08.21-1.5.63-.4.4-.6.89-.6 1.47v11.82c0 .58.2 1.08.6 1.5.42.4.92.6 1.5.6h6.69c.58 0 1.07-.2 1.47-.6.42-.42.63-.92.63-1.5V14.8c0-.58-.21-1.07-.63-1.47-.4-.42-.89-.63-1.47-.63h-6.69ZM310.727 10.78c.06-.1.15-.18.27-.24.14-.08.27-.12.39-.12h1.83c.28 0 .42.14.42.42v19.74c0 .28-.14.42-.42.42h-1.44c-.28 0-.42-.14-.42-.42V13.27l-4.35 7.08c-.06.1-.16.19-.3.27-.12.06-.23.09-.33.09h-.9c-.12 0-.25-.03-.39-.09a.867.867 0 0 1-.27-.27l-4.35-7.08v17.31c0 .28-.14.42-.42.42h-1.41c-.28 0-.42-.14-.42-.42V10.84c0-.28.14-.42.42-.42h1.83c.1 0 .21.04.33.12.14.06.24.14.3.24l4.83 7.2 4.8-7.2ZM319.105 30.58V10.84c0-.12.04-.22.12-.3.1-.08.2-.12.3-.12h10.65c.6 0 1.16.12 1.68.36.54.22 1.01.53 1.41.93.4.4.71.87.93 1.41.24.52.36 1.08.36 1.68v2.67c0 .6-.12 1.17-.36 1.71-.22.54-.53 1.01-.93 1.41-.4.38-.87.69-1.41.93-.52.22-1.08.33-1.68.33h-8.79v8.73c0 .28-.14.42-.42.42h-1.44c-.1 0-.2-.04-.3-.12a.407.407 0 0 1-.12-.3Zm2.28-11.01h8.79c.58 0 1.07-.2 1.47-.6.42-.42.63-.92.63-1.5V14.8c0-.58-.21-1.07-.63-1.47-.4-.42-.89-.63-1.47-.63h-8.79v6.87ZM350.553 10.42c.12 0 .23.04.33.12.12.08.2.17.24.27l4.17 10.44c.04.1.07.23.09.39.04.16.06.3.06.42v8.52c0 .28-.14.42-.42.42h-1.41c-.28 0-.42-.14-.42-.42v-5.55h-10.89v5.55c0 .28-.14.42-.42.42h-1.44c-.28 0-.42-.14-.42-.42v-8.52c0-.12.01-.26.03-.42.04-.16.08-.29.12-.39l4.17-10.44c.04-.1.12-.19.24-.27.12-.08.23-.12.33-.12h5.64Zm2.64 12.36v-.72l-3.75-9.36h-3.39l-3.75 9.36v.72h10.89ZM374.111 30.58v-8.61l-10.89-9v17.61c0 .28-.14.42-.42.42h-1.44c-.1 0-.2-.04-.3-.12a.407.407 0 0 1-.12-.3V10.84c0-.12.04-.22.12-.3.1-.08.2-.12.3-.12h2.01c.28 0 .53.09.75.27l9.99 8.25v-8.1c0-.28.14-.42.42-.42h1.44c.28 0 .42.14.42.42v19.74c0 .28-.14.42-.42.42h-1.44c-.28 0-.42-.14-.42-.42ZM382.159 16.3c-.08-.1-.15-.21-.21-.33a.996.996 0 0 1-.09-.39v-4.74c0-.1.04-.19.12-.27.1-.1.2-.15.3-.15h1.44c.12 0 .22.05.3.15.08.08.12.17.12.27v3.84c0 .1.03.22.09.36.06.14.13.26.21.36l5.16 5.04 5.13-5.04c.1-.1.17-.22.21-.36.06-.14.09-.26.09-.36v-3.84c0-.1.04-.19.12-.27.08-.1.18-.15.3-.15h1.44c.12 0 .22.05.3.15.08.08.12.17.12.27v4.74c0 .12-.03.25-.09.39-.06.12-.13.23-.21.33l-6.27 6.24v8.04c0 .12-.05.22-.15.3-.08.08-.17.12-.27.12h-1.44c-.28 0-.42-.14-.42-.42v-8.04l-6.3-6.24Z" fill="#fff"/></svg>
